X:460
%%etbk:tnset id:145,pos:1,rep:3x,ant:
%%etbk:wsite http://thesession.org/tunes/8547
%%etbk:video src:ytube,cde:qq60Ohiiq0I,desc:
%%etbk:pldat 2016-09-10T14:22,2016-09-06T15:23,2016-03-25T15:45,2016-02-26T17:41,2016-01-21T18:59,2016-01-01T15:02,2015-12-24T14:50,2015-08-13T18:24,2015-08-01T16:35,2015-07-31T18:11,2015-07-23T17:57,2015-07-20T18:41,2015-07-18T14:33,2015-07-16T16:13,2015-07-15T17:05,2015-07-15T12:08,2015-05-19T17:14,2015-04-12T09:39,2014-11-18T16:39,2014-06-15T13:43,2014-05-06T17:57,2014-02-07T15:30,2013-09-12T18:55
T: May Morning Dew
Z: Piano Box Version by Martin Fleischmann
H: Created 2013-02-19 /  Last Modified 2013-02-19
R: slow air
M: 3/4
L: 1/8
K: Ddor
"D Drone"!1!D2 | D2 !tenuto!!2!A>{c}G AB | !4!c>{d}c !tenuto!A2 AB | !tenuto!!4!c>{d}c (!1!!2!E2 {G}E)!1!D  | !tenuto!!1!D2 !tenuto!!3!!1!d2 !1!de | 
!3!f2 !tenuto!(e2 {f}e)>d | !2!e2 !tenuto!(!1!!2!A2 {c}A)G |  !2!A2 !5!!3!d3 !1!d  | !2!e>{g}e/2!1!d/2 !tenuto!d2 de | 
!3!f2 -f>{g}f/2e/2 df | !2!e>{f}e/2!1!d/2 !tenuto!!3!c>c de | !tenuto!!4!d>{e}d c!1!A !3!G2- | 
G2-G>{A}G !2!F!3!G | !1!A!4!d -!tenuto!d2 de | !4!d>{e}d c!1!A !3!G2- | G2 (!2!E2 {G}E)!1!D  | D6 |


